austria/municipalities/70709.svg

<?xml version="1.0" encoding="UTF-8"?>
<!DOCTYPE svg PUBLIC "-//W3C//DTD SVG 1.1//EN" "http://www.w3.org/Graphics/SVG/1.1/DTD/svg11.dtd">
<svg xmlns="http://www.w3.org/2000/svg" version="1.1" width="166px" height="192px" style="shape-rendering:geometricPrecision; text-rendering:geometricPrecision; image-rendering:optimizeQuality; fill-rule:evenodd; clip-rule:evenodd" xmlns:xlink="http://www.w3.org/1999/xlink">
<g><path style="opacity:1" fill="#070805" d="M -0.5,-0.5 C 54.8333,-0.5 110.167,-0.5 165.5,-0.5C 165.5,39.5 165.5,79.5 165.5,119.5C 157.038,159.629 132.705,183.629 92.5,191.5C 85.5,191.5 78.5,191.5 71.5,191.5C 30.9271,182.927 6.9271,158.261 -0.5,117.5C -0.5,78.1667 -0.5,38.8333 -0.5,-0.5 Z"/></g>
<g><path style="opacity:1" fill="#185b2a" d="M 3.5,3.5 C 56.1667,3.5 108.833,3.5 161.5,3.5C 161.667,41.8348 161.5,80.1681 161,118.5C 152.457,162.042 125.957,185.042 81.5,187.5C 47.184,185.942 23.0173,169.609 9,138.5C 6.44097,131.372 4.7743,124.038 4,116.5C 3.50001,78.8348 3.33335,41.1681 3.5,3.5 Z"/></g>
<g><path style="opacity:1" fill="#13120a" d="M 81.5,21.5 C 85.0988,23.2629 87.9322,25.9295 90,29.5C 90.6891,28.6433 91.5224,27.9767 92.5,27.5C 97.2079,33.7102 98.7079,40.7102 97,48.5C 95.5164,52.1323 93.5164,55.4656 91,58.5C 90.51,59.7932 90.3433,61.1266 90.5,62.5C 92.3904,62.7035 93.8904,62.0368 95,60.5C 97.7308,47.8816 105.564,41.5483 118.5,41.5C 118.5,42.5 118.5,43.5 118.5,44.5C 122.452,43.7279 126.452,43.3946 130.5,43.5C 130.628,47.8814 130.295,52.2147 129.5,56.5C 130.5,56.5 131.5,56.5 132.5,56.5C 132.381,61.1902 131.048,65.5235 128.5,69.5C 130.579,71.1567 130.746,73.1567 129,75.5C 127.207,78.2953 125.04,80.7953 122.5,83C 124.767,84.0812 124.934,85.5812 123,87.5C 115.073,96.198 105.906,97.698 95.5,92C 88.7329,89.9319 85.7329,92.4319 86.5,99.5C 86.6667,101.167 86.8333,102.833 87,104.5C 93.4927,102.262 98.9927,103.762 103.5,109C 123.778,109.795 132.112,120.295 128.5,140.5C 107.503,142.338 97.3366,132.672 98,111.5C 95.4406,108.651 92.2739,107.817 88.5,109C 85.7928,110.864 84.9595,113.364 86,116.5C 99.7242,128.844 99.5575,141.344 85.5,154C 83.5,154.667 81.5,154.667 79.5,154C 69.722,145.998 66.8887,136.165 71,124.5C 73.946,122.044 76.6127,119.377 79,116.5C 80.4612,112.564 79.2946,110.064 75.5,109C 72.15,108.07 69.3167,108.903 67,111.5C 68.3201,130.179 59.6535,140.179 41,141.5C 36.6636,141.652 34.8303,139.485 35.5,135C 35.7505,117.081 44.7505,108.414 62.5,109C 66.6517,104.001 71.985,102.167 78.5,103.5C 79.5344,90.7683 74.5344,87.9349 63.5,95C 53.625,97.2687 46.125,94.1021 41,85.5C 40.5439,84.2559 41.0439,83.4226 42.5,83C 39.2172,79.603 36.5505,75.7697 34.5,71.5C 35.1667,70.8333 35.8333,70.1667 36.5,69.5C 34.7696,65.9753 33.4363,62.3086 32.5,58.5C 33.3805,57.0295 34.7139,56.1962 36.5,56C 34.3315,52.1505 33.9981,48.1505 35.5,44C 38.5358,43.3615 41.5358,43.5282 44.5,44.5C 52.5669,40.6345 59.7335,42.3012 66,49.5C 67.4869,53.1165 68.8202,56.7831 70,60.5C 71.4443,62.1554 73.2776,62.822 75.5,62.5C 73.0321,57.5641 70.5321,52.5641 68,47.5C 66.8492,40.8215 67.8492,34.4882 71,28.5C 72.7216,28.0385 74.555,27.8718 76.5,28C 77.9993,25.6721 79.666,23.5054 81.5,21.5 Z"/></g>
<g><path style="opacity:1" fill="#e3a21c" d="M 81.5,23.5 C 84.9875,24.8237 87.3208,27.3237 88.5,31C 89.9961,31.5074 91.1627,31.0074 92,29.5C 96.0559,35.3806 97.0559,41.7139 95,48.5C 93,51.8333 91,55.1667 89,58.5C 88.0749,64.6533 90.2416,65.9867 95.5,62.5C 97.6303,58.6665 99.4636,54.6665 101,50.5C 104.891,45.3687 110.057,43.0354 116.5,43.5C 116.5,44.5 116.5,45.5 116.5,46.5C 120.798,45.8005 125.131,45.4672 129.5,45.5C 129.393,49.0981 128.726,52.5981 127.5,56C 128.217,57.531 129.217,58.8643 130.5,60C 129.506,64.1568 127.839,67.9901 125.5,71.5C 127.04,72.5321 127.54,73.8654 127,75.5C 124.833,79 122,81.8333 118.5,84C 120.255,84.7199 121.089,85.8866 121,87.5C 117.232,91.5396 112.565,93.8729 107,94.5C 101.983,92.8217 96.9831,91.1551 92,89.5C 89.3333,89.1667 87.3333,90.1667 86,92.5C 84.3534,97.1129 84.1868,101.78 85.5,106.5C 87.7094,105.894 89.876,105.227 92,104.5C 94.1748,105.255 96.3415,106.088 98.5,107C 99.8782,108.713 101.545,110.047 103.5,111C 107.5,111.333 111.5,111.667 115.5,112C 120.576,114.458 119.909,115.625 113.5,115.5C 109.701,115.913 106.367,114.913 103.5,112.5C 103.167,112.833 102.833,113.167 102.5,113.5C 105.642,119.297 106.142,125.297 104,131.5C 101.296,124.782 99.963,117.782 100,110.5C 95.6514,105.805 90.8181,105.305 85.5,109C 82.9166,112.55 83.0833,116.05 86,119.5C 88.3333,121.5 90.6667,123.5 93,125.5C 94.373,127.695 94.7063,130.029 94,132.5C 88.5183,129.185 84.685,124.519 82.5,118.5C 80.6295,124.369 76.9628,128.703 71.5,131.5C 70.3861,130.277 70.2195,128.944 71,127.5C 74.5309,124.055 77.8643,120.389 81,116.5C 82.0611,110.05 79.2278,106.717 72.5,106.5C 70.1434,107.095 67.9767,108.095 66,109.5C 64.7852,114.051 64.1186,118.718 64,123.5C 62.2457,132.506 60.7457,133.006 59.5,125C 59.953,121.021 60.953,117.188 62.5,113.5C 62.1667,113.167 61.8333,112.833 61.5,112.5C 56.5497,115.333 51.2164,116.166 45.5,115C 46.7158,113.26 48.3825,112.26 50.5,112C 54.1667,111.667 57.8333,111.333 61.5,111C 64.228,108.608 67.228,106.608 70.5,105C 73.5947,104.687 76.5947,105.187 79.5,106.5C 80.6599,102.541 80.8265,98.5411 80,94.5C 77.9754,89.8553 74.4754,88.3553 69.5,90C 59.5956,96.4177 50.929,95.0844 43.5,86C 44.3279,85.0853 45.3279,84.4186 46.5,84C 44.9571,82.1217 43.1238,80.6217 41,79.5C 39.6338,77.6297 38.4672,75.6297 37.5,73.5C 38.1667,72.8333 38.8333,72.1667 39.5,71.5C 37.1173,67.5755 35.4506,63.4088 34.5,59C 36.4096,58.5917 37.4096,57.4251 37.5,55.5C 36.673,52.2169 36.3396,48.8835 36.5,45.5C 40.5191,45.6458 44.5191,45.9791 48.5,46.5C 48.5,45.5 48.5,44.5 48.5,43.5C 53.6863,43.4617 58.353,44.9617 62.5,48C 65.0415,52.2751 67.2082,56.7751 69,61.5C 74.0711,66.1617 76.4044,65.1617 76,58.5C 68.6332,49.4616 67.6332,39.7949 73,29.5C 73.8373,31.0074 75.0039,31.5074 76.5,31C 78.3009,28.5574 79.9676,26.0574 81.5,23.5 Z"/></g>
<g><path style="opacity:1" fill="#18150c" d="M 83.5,32.5 C 83.3334,50.5031 83.5001,68.5031 84,86.5C 94.7817,71.8519 107.615,60.1853 122.5,51.5C 114.672,58.4913 106.672,65.3247 98.5,72C 103.21,72.3751 107.877,73.0418 112.5,74C 114.421,74.3603 116.088,75.1936 117.5,76.5C 117.167,76.8333 116.833,77.1667 116.5,77.5C 109.724,74.8517 102.724,74.0184 95.5,75C 88.3399,81.3128 84.0066,89.1462 82.5,98.5C 80.9934,89.1462 76.6601,81.3128 69.5,75C 62.2761,74.0184 55.2761,74.8517 48.5,77.5C 48.1667,77.1667 47.8333,76.8333 47.5,76.5C 48.9122,75.1936 50.5789,74.3603 52.5,74C 57.1232,73.0418 61.7899,72.3751 66.5,72C 59.3861,64.9505 51.7195,58.6172 43.5,53C 42.2888,52.1072 42.2888,51.2739 43.5,50.5C 57.8344,60.5018 70.1677,72.5018 80.5,86.5C 80.56,87.0431 80.8933,87.3764 81.5,87.5C 82.1667,69.0045 82.8333,50.6711 83.5,32.5 Z"/></g>
<g><path style="opacity:1" fill="#392d16" d="M 83.5,32.5 C 82.8333,50.6711 82.1667,69.0045 81.5,87.5C 80.8933,87.3764 80.56,87.0431 80.5,86.5C 81.1667,68.3289 81.8333,49.9955 82.5,31.5C 83.1067,31.6236 83.44,31.9569 83.5,32.5 Z"/></g>
<g><path style="opacity:1" fill="#e0a01d" d="M 42.5,116.5 C 44.854,116.838 47.1873,117.338 49.5,118C 47.2777,121.168 45.9444,124.668 45.5,128.5C 43.1667,128.5 40.8333,128.5 38.5,128.5C 38.8468,124.126 40.1801,120.126 42.5,116.5 Z"/></g>
<g><path style="opacity:1" fill="#e3a31c" d="M 56.5,116.5 C 57.552,116.351 58.552,116.517 59.5,117C 58.7117,120.076 58.2117,123.242 58,126.5C 54.6791,127.971 51.1791,128.637 47.5,128.5C 47.699,121.996 50.699,117.996 56.5,116.5 Z"/></g>
<g><path style="opacity:1" fill="#dc9d1e" d="M 105.5,117.5 C 105.735,116.903 106.235,116.57 107,116.5C 109.135,117.127 111.302,117.627 113.5,118C 122.069,128.21 120.069,131.21 107.5,127C 106.868,123.73 106.201,120.563 105.5,117.5 Z"/></g>
<g><path style="opacity:1" fill="#dd9f1d" d="M 118.5,116.5 C 120.144,116.286 121.644,116.62 123,117.5C 124.444,120.055 125.611,122.721 126.5,125.5C 124.974,128.092 122.641,129.092 119.5,128.5C 119.159,124.646 117.826,121.146 115.5,118C 116.737,117.768 117.737,117.268 118.5,116.5 Z"/></g>
<g><path style="opacity:1" fill="#fdfdfd" d="M -0.5,117.5 C 6.9271,158.261 30.9271,182.927 71.5,191.5C 47.5,191.5 23.5,191.5 -0.5,191.5C -0.5,166.833 -0.5,142.167 -0.5,117.5 Z"/></g>
<g><path style="opacity:1" fill="#fdfdfd" d="M 165.5,119.5 C 165.5,143.5 165.5,167.5 165.5,191.5C 141.167,191.5 116.833,191.5 92.5,191.5C 132.705,183.629 157.038,159.629 165.5,119.5 Z"/></g>
<g><path style="opacity:1" fill="#e1a11d" d="M 81.5,123.5 C 84.2836,125.454 86.6169,127.954 88.5,131C 86.5421,133.748 84.7088,136.582 83,139.5C 80.6647,136.834 78.8314,133.834 77.5,130.5C 78.8889,128.132 80.2222,125.799 81.5,123.5 Z"/></g>
<g><path style="opacity:1" fill="#db9d1e" d="M 56.5,128.5 C 59.3053,132.255 58.3053,135.088 53.5,137C 50.9373,138.079 48.2706,138.579 45.5,138.5C 45.7038,135.482 46.0371,132.482 46.5,129.5C 50.0419,129.813 53.3752,129.479 56.5,128.5 Z"/></g>
<g><path style="opacity:1" fill="#da9c1e" d="M 106.5,128.5 C 110.415,129.267 114.415,129.767 118.5,130C 119.617,133.073 119.784,136.24 119,139.5C 114.416,138.64 110.416,136.64 107,133.5C 106.506,131.866 106.34,130.199 106.5,128.5 Z"/></g>
<g><path style="opacity:1" fill="#e1a11d" d="M 37.5,129.5 C 39.8333,129.5 42.1667,129.5 44.5,129.5C 44.5,132.833 44.5,136.167 44.5,139.5C 42.1667,139.5 39.8333,139.5 37.5,139.5C 37.5,136.167 37.5,132.833 37.5,129.5 Z"/></g>
<g><path style="opacity:1" fill="#d79a1e" d="M 120.5,129.5 C 122.833,129.5 125.167,129.5 127.5,129.5C 127.877,132.525 128.044,135.525 128,138.5C 125.619,139.435 123.119,139.768 120.5,139.5C 120.5,136.167 120.5,132.833 120.5,129.5 Z"/></g>
<g><path style="opacity:1" fill="#e3a21c" d="M 74.5,131.5 C 77.1572,134.264 79.4905,137.431 81.5,141C 79.6499,143.018 77.6499,144.851 75.5,146.5C 72.8821,143.096 71.2154,139.263 70.5,135C 71.3471,133.229 72.6805,132.063 74.5,131.5 Z"/></g>
<g><path style="opacity:1" fill="#de9f1d" d="M 89.5,131.5 C 91.8897,132.512 93.5563,134.179 94.5,136.5C 93.9366,139.862 92.6033,142.862 90.5,145.5C 88.0905,144.299 86.0905,142.633 84.5,140.5C 86.4325,137.634 88.0991,134.634 89.5,131.5 Z"/></g>
<g><path style="opacity:1" fill="#e0a01d" d="M 82.5,142.5 C 91.6842,145.871 91.6842,149.538 82.5,153.5C 80.0758,152.577 78.0758,151.077 76.5,149C 78.7059,146.963 80.7059,144.797 82.5,142.5 Z"/></g>
</svg>

<svg xmlns="http://www.w3.org/2000/svg" width="166" height="192" style="shape-rendering:geometricPrecision;text-rendering:geometricPrecision;image-rendering:optimizeQuality;fill-rule:evenodd;clip-rule:evenodd"><path style="opacity:1" fill="#070805" d="M-.5-.5h166v120c-8.462 40.129-32.795 64.129-73 72h-21c-40.573-8.573-64.573-33.239-72-74V-.5z"/><path style="opacity:1" fill="#185b2a" d="M3.5 3.5h158c.167 38.335 0 76.668-.5 115-8.543 43.542-35.043 66.542-79.5 69-34.316-1.558-58.483-17.891-72.5-49a92.996 92.996 0 0 1-5-22c-.5-37.665-.667-75.332-.5-113z"/><path style="opacity:1" fill="#13120a" d="M81.5 21.5c3.599 1.763 6.432 4.43 8.5 8a7.253 7.253 0 0 1 2.5-2c4.708 6.21 6.208 13.21 4.5 21a38.216 38.216 0 0 1-6 10 8.434 8.434 0 0 0-.5 4c1.89.203 3.39-.463 4.5-2 2.73-12.618 10.564-18.952 23.5-19v3a54.938 54.938 0 0 1 12-1 61.26 61.26 0 0 1-1 13h3c-.119 4.69-1.452 9.023-4 13 2.079 1.657 2.246 3.657.5 6a34.692 34.692 0 0 1-6.5 7.5c2.267 1.081 2.434 2.581.5 4.5-7.927 8.698-17.094 10.198-27.5 4.5-6.767-2.068-9.767.432-9 7.5l.5 5c6.493-2.238 11.993-.738 16.5 4.5 20.278.795 28.612 11.295 25 31.5-20.997 1.838-31.163-7.828-30.5-29-2.56-2.849-5.726-3.683-9.5-2.5-2.707 1.864-3.54 4.364-2.5 7.5 13.724 12.344 13.558 24.844-.5 37.5-2 .667-4 .667-6 0-9.778-8.002-12.611-17.835-8.5-29.5a61.717 61.717 0 0 0 8-8c1.461-3.936.295-6.436-3.5-7.5-3.35-.93-6.183-.097-8.5 2.5 1.32 18.679-7.346 28.679-26 30-4.336.152-6.17-2.015-5.5-6.5.25-17.919 9.25-26.586 27-26 4.152-4.999 9.485-6.833 16-5.5 1.034-12.732-3.966-15.565-15-8.5-9.875 2.269-17.375-.898-22.5-9.5-.456-1.244.044-2.077 1.5-2.5a43.606 43.606 0 0 1-8-11.5l2-2a54.31 54.31 0 0 1-4-11c.88-1.47 2.214-2.304 4-2.5-2.169-3.85-2.502-7.85-1-12 3.036-.639 6.036-.472 9 .5 8.067-3.865 15.233-2.199 21.5 5a141.478 141.478 0 0 1 4 11c1.444 1.655 3.278 2.322 5.5 2l-7.5-15c-1.15-6.678-.15-13.012 3-19 1.722-.462 3.555-.628 5.5-.5a48.615 48.615 0 0 1 5-6.5z"/><path style="opacity:1" fill="#e3a21c" d="M81.5 23.5c3.487 1.324 5.82 3.824 7 7.5 1.496.507 2.663.007 3.5-1.5 4.056 5.88 5.056 12.214 3 19l-6 10c-.925 6.153 1.242 7.487 6.5 4a85.714 85.714 0 0 0 5.5-12c3.891-5.131 9.057-7.465 15.5-7v3a77.174 77.174 0 0 1 13-1 33.739 33.739 0 0 1-2 10.5 12.207 12.207 0 0 0 3 4 35.425 35.425 0 0 1-5 11.5c1.54 1.032 2.04 2.365 1.5 4-2.167 3.5-5 6.333-8.5 8.5 1.755.72 2.589 1.887 2.5 3.5-3.768 4.04-8.435 6.373-14 7a7381.577 7381.577 0 0 0-15-5c-2.667-.333-4.667.667-6 3-1.647 4.613-1.813 9.28-.5 14 2.21-.606 4.376-1.273 6.5-2 2.175.755 4.341 1.588 6.5 2.5a14.508 14.508 0 0 0 5 4l12 1c5.076 2.458 4.409 3.625-2 3.5-3.799.413-7.133-.587-10-3l-1 1c3.142 5.797 3.642 11.797 1.5 18-2.704-6.718-4.037-13.718-4-21-4.349-4.695-9.182-5.195-14.5-1.5-2.583 3.55-2.417 7.05.5 10.5l7 6c1.373 2.195 1.706 4.529 1 7-5.482-3.315-9.315-7.981-11.5-14-1.87 5.869-5.537 10.203-11 13-1.114-1.223-1.28-2.556-.5-4a124.738 124.738 0 0 0 10-11c1.061-6.45-1.772-9.783-8.5-10a19.263 19.263 0 0 0-6.5 3 59.847 59.847 0 0 0-2 14c-1.754 9.006-3.254 9.506-4.5 1.5a41.804 41.804 0 0 1 3-11.5l-1-1c-4.95 2.833-10.284 3.666-16 2.5 1.216-1.74 2.883-2.74 5-3l11-1a41.056 41.056 0 0 1 9-6c3.095-.313 6.095.187 9 1.5a24.558 24.558 0 0 0 .5-12c-2.025-4.645-5.525-6.145-10.5-4.5-9.904 6.418-18.571 5.084-26-4a7.291 7.291 0 0 1 3-2 17.834 17.834 0 0 0-5.5-4.5 33.924 33.924 0 0 1-3.5-6l2-2c-2.383-3.924-4.05-8.091-5-12.5 1.91-.408 2.91-1.575 3-3.5a34.108 34.108 0 0 1-1-10c4.02.146 8.02.48 12 1v-3c5.186-.038 9.853 1.462 14 4.5A86.117 86.117 0 0 1 69 61.5c5.071 4.662 7.404 3.662 7-3-7.367-9.038-8.367-18.705-3-29 .837 1.507 2.004 2.007 3.5 1.5a94.391 94.391 0 0 0 5-7.5z"/><path style="opacity:1" fill="#18150c" d="M83.5 32.5c-.167 18.003 0 36.003.5 54 10.782-14.648 23.615-26.315 38.5-35a716.244 716.244 0 0 1-24 20.5c4.71.375 9.377 1.042 14 2 1.921.36 3.588 1.194 5 2.5l-1 1c-6.776-2.648-13.776-3.482-21-2.5-7.16 6.313-11.493 14.146-13 23.5-1.507-9.354-5.84-17.187-13-23.5-7.224-.982-14.224-.148-21 2.5l-1-1c1.412-1.306 3.079-2.14 5-2.5 4.623-.958 9.29-1.625 14-2a164.39 164.39 0 0 0-23-19c-1.211-.893-1.211-1.726 0-2.5 14.334 10.002 26.668 22.002 37 36 .06.543.393.876 1 1a85646.25 85646.25 0 0 1 2-55z"/><path style="opacity:1" fill="#392d16" d="M83.5 32.5a85646.25 85646.25 0 0 0-2 55c-.607-.124-.94-.457-1-1a85646.25 85646.25 0 0 0 2-55c.607.124.94.457 1 1z"/><path style="opacity:1" fill="#e0a01d" d="M42.5 116.5a52.55 52.55 0 0 1 7 1.5c-2.222 3.168-3.556 6.668-4 10.5h-7c.347-4.374 1.68-8.374 4-12z"/><path style="opacity:1" fill="#e3a31c" d="M56.5 116.5a4.934 4.934 0 0 1 3 .5 51.676 51.676 0 0 0-1.5 9.5c-3.32 1.471-6.82 2.137-10.5 2 .199-6.504 3.199-10.504 9-12z"/><path style="opacity:1" fill="#dc9d1e" d="M105.5 117.5c.235-.597.735-.93 1.5-1a56.738 56.738 0 0 0 6.5 1.5c8.569 10.21 6.569 13.21-6 9a285.14 285.14 0 0 0-2-9.5z"/><path style="opacity:1" fill="#dd9f1d" d="M118.5 116.5c1.644-.214 3.144.12 4.5 1a42.597 42.597 0 0 1 3.5 8c-1.526 2.592-3.859 3.592-7 3-.341-3.854-1.674-7.354-4-10.5 1.237-.232 2.237-.732 3-1.5z"/><path style="opacity:1" fill="#fdfdfd" d="M-.5 117.5c7.427 40.761 31.427 65.427 72 74h-72v-74zM165.5 119.5v72h-73c40.205-7.871 64.538-31.871 73-72z"/><path style="opacity:1" fill="#e1a11d" d="M81.5 123.5c2.784 1.954 5.117 4.454 7 7.5a113.383 113.383 0 0 0-5.5 8.5 31.002 31.002 0 0 1-5.5-9 348.152 348.152 0 0 0 4-7z"/><path style="opacity:1" fill="#db9d1e" d="M56.5 128.5c2.805 3.755 1.805 6.588-3 8.5a18.991 18.991 0 0 1-8 1.5c.204-3.018.537-6.018 1-9 3.542.313 6.875-.021 10-1z"/><path style="opacity:1" fill="#da9c1e" d="M106.5 128.5a88.581 88.581 0 0 0 12 1.5c1.117 3.073 1.284 6.24.5 9.5-4.584-.86-8.584-2.86-12-6a12.93 12.93 0 0 1-.5-5z"/><path style="opacity:1" fill="#e1a11d" d="M37.5 129.5h7v10h-7v-10z"/><path style="opacity:1" fill="#d79a1e" d="M120.5 129.5h7c.377 3.025.544 6.025.5 9-2.381.935-4.881 1.268-7.5 1v-10z"/><path style="opacity:1" fill="#e3a21c" d="M74.5 131.5c2.657 2.764 4.99 5.931 7 9.5a46.62 46.62 0 0 1-6 5.5c-2.618-3.404-4.285-7.237-5-11.5.847-1.771 2.18-2.937 4-3.5z"/><path style="opacity:1" fill="#de9f1d" d="M89.5 131.5c2.39 1.012 4.056 2.679 5 5-.563 3.362-1.897 6.362-4 9a16.626 16.626 0 0 1-6-5 59.51 59.51 0 0 0 5-9z"/><path style="opacity:1" fill="#e0a01d" d="M82.5 142.5c9.184 3.371 9.184 7.038 0 11-2.424-.923-4.424-2.423-6-4.5a54.547 54.547 0 0 0 6-6.5z"/></svg>
